web/src/lib/icons/trash-closed.svg

<svg xmlns="http://www.w3.org/2000/svg" viewBox="0 0 652 652"><g fill="none" stroke-width="2"><path stroke="#ffe384" d="m437.86 122.03-41.33-.09m-141.62.04-41.02-.02" vector-effect="non-scaling-stroke"/><path stroke="#f69505" d="M231.26 565.83c7.18-.36 13.38-4.52 16.02-11.03q1.26-3.12.85-12.25-7.32-163.8-8.64-193.78c-.48-11.11-9.61-18.73-20.25-18.19-10.64.55-18.95 9.06-18.3 20.16q1.75 29.96 11.17 193.65.52 9.13 2.1 12.1c3.29 6.21 9.88 9.71 17.05 9.34M343.03 348.3a17.61 17.61 0 0 0-17.61-17.61h-.88a17.61 17.61 0 0 0-17.61 17.61v199.98a17.61 17.61 0 0 0 17.61 17.61h.88a17.61 17.61 0 0 0 17.61-17.61V348.3m57.87 200.16c-.31 5.03 3.16 10.65 6.91 13.75 9.16 7.54 23.95 3.26 28.52-7.5q.85-1.98 1.22-8.43c3.87-66.64 7.61-125.14 11.45-191.21q.43-7.46-.68-10.98-2.79-8.86-11.17-12.18c-9.16-3.64-18.52-.31-24.06 7.77q-2.49 3.65-2.54 8.83-.02 1.85-.44 11.24-.67 15.23-5.05 101.43c-1.52 29.83-2.53 61.14-4.16 87.28" vector-effect="non-scaling-stroke"/></g><path fill="#fff" d="m437.86 122.03-41.33-.09q-1.58-15.57-1.49-31.63.04-6.31-.89-8.9c-3.39-9.45-11.8-16.59-21.87-17.08q-6.85-.33-24.45-.04-22.6.37-67.07-.1c-14.37-.16-25.27 10.53-24.83 25.06q.5 16.68-1.02 32.73l-41.02-.02q-1.77-7.2-1.66-14.81c.17-11.67-.16-23.15.34-30.42 1.82-26.29 20.51-48.3 46.21-53.79q5.73-1.23 27.09-1.25 58.15-.05 94.84.04c11.6.03 22.31 4.08 32.14 10.65 15.43 10.31 24.35 28.03 24.92 46.33q.52 16.5.09 43.32"/><path fill="#fec708" d="M254.91 121.98q3 .51 7.84.51 61.13-.09 122.25.05 6.73.01 11.53-.6l41.33.09q5.71.53 14.39.47 3.11-.02 78.71-.05 16.37-.01 19.03.65c9.99 2.5 17.92 9.82 20.79 20.14q.86 3.09.85 11.13-.04 40.49-.13 43.56c-.35 12.08-10.09 22.31-21.33 24.9q-2.92.67-18.36.68-96.39.09-387.81.05-29.16 0-32.67-.05-10.61-.14-14.02-1.45c-7.79-2.98-15.35-9.92-17.55-18.05q-1-3.72-.97-11.62.06-18.92-.07-37.15-.08-9.82 1.53-14.29 3.18-8.84 11.74-14.23c6.76-4.25 11.76-4.15 20.95-4.19q39.37-.16 88.81.06 6.31.03 12.14-.63zm258.34 115.53c5.99.07 13.62 3.71 18.75 7.45q2.92 2.14 6.29 7 7.66 11.06 5.9 26.97-3.6 32.52-21.19 204.86-8.46 82.82-11.55 115.69-1.52 16.12-14.02 28.47-13.51 13.36-32.93 13.4-125.84.26-272.74.04c-6.73-.01-11.06.29-15.93-.83q-10.41-2.41-17.13-6.97-13.36-9.08-19.18-24.82-1.71-4.65-2.48-14.7-.68-8.81-2.16-23.8-7.65-77.58-14.33-147.74c-4.59-48.09-9.76-96.87-13.99-139.07q-1.22-12.2-.4-16.43c3.21-16.53 14.83-28.71 31.91-29.38q6.32-.25 18.43-.26 64.01-.03 335.75 0 10.44 0 21 .12M231.26 565.83c7.18-.36 13.38-4.52 16.02-11.03q1.26-3.12.85-12.25-7.32-163.8-8.64-193.78c-.48-11.11-9.61-18.73-20.25-18.19-10.64.55-18.95 9.06-18.3 20.16q1.75 29.96 11.17 193.65.52 9.13 2.1 12.1c3.29 6.21 9.88 9.71 17.05 9.34M343.03 348.3a17.61 17.61 0 0 0-17.61-17.61h-.88a17.61 17.61 0 0 0-17.61 17.61v199.98a17.61 17.61 0 0 0 17.61 17.61h.88a17.61 17.61 0 0 0 17.61-17.61zm57.87 200.16c-.31 5.03 3.16 10.65 6.91 13.75 9.16 7.54 23.95 3.26 28.52-7.5q.85-1.98 1.22-8.43c3.87-66.64 7.61-125.14 11.45-191.21q.43-7.46-.68-10.98-2.79-8.86-11.17-12.18c-9.16-3.64-18.52-.31-24.06 7.77q-2.49 3.65-2.54 8.83-.02 1.85-.44 11.24-.67 15.23-5.05 101.43c-1.52 29.83-2.53 61.14-4.16 87.28"/><path fill="#ee6202" d="M219.24 330.58c10.64-.54 19.77 7.08 20.25 18.19q1.32 29.98 8.64 193.78.41 9.13-.85 12.25c-2.64 6.51-8.84 10.67-16.02 11.03-7.17.37-13.76-3.13-17.05-9.34q-1.58-2.97-2.1-12.1-9.42-163.69-11.17-193.65c-.65-11.1 7.66-19.61 18.3-20.16"/><rect width="36.1" height="235.2" x="306.93" y="330.69" fill="#ee6202" rx="17.61"/><path fill="#ee6202" d="M407.81 562.21c-3.75-3.1-7.22-8.72-6.91-13.75 1.63-26.14 2.64-57.45 4.16-87.28q4.38-86.2 5.05-101.43.42-9.39.44-11.24.05-5.18 2.54-8.83c5.54-8.08 14.9-11.41 24.06-7.77q8.38 3.32 11.17 12.18 1.11 3.52.68 10.98c-3.84 66.07-7.58 124.57-11.45 191.21q-.37 6.45-1.22 8.43c-4.57 10.76-19.36 15.04-28.52 7.5"/></svg>

<?xml version="1.0" encoding="UTF-8" standalone="no"?>
<!DOCTYPE svg PUBLIC "-//W3C//DTD SVG 1.1//EN" "http://www.w3.org/Graphics/SVG/1.1/DTD/svg11.dtd">
<svg xmlns="http://www.w3.org/2000/svg" version="1.1" viewBox="0.00 0.00 652.00 652.00">
<g stroke-width="2.00" fill="none" stroke-linecap="butt">
<path stroke="#ffe384" vector-effect="non-scaling-stroke" d="
  M 437.86 122.03
  L 396.53 121.94"
/>
<path stroke="#ffe384" vector-effect="non-scaling-stroke" d="
  M 254.91 121.98
  L 213.89 121.96"
/>
<path stroke="#f69505" vector-effect="non-scaling-stroke" d="
  M 231.26 565.83
  C 238.44 565.47 244.64 561.31 247.28 554.80
  Q 248.54 551.68 248.13 542.55
  Q 240.81 378.75 239.49 348.77
  C 239.01 337.66 229.88 330.04 219.24 330.58
  C 208.60 331.13 200.29 339.64 200.94 350.74
  Q 202.69 380.70 212.11 544.39
  Q 212.63 553.52 214.21 556.49
  C 217.50 562.70 224.09 566.20 231.26 565.83"
/>
<path stroke="#f69505" vector-effect="non-scaling-stroke" d="
  M 343.03 348.30
  A 17.61 17.61 0.0 0 0 325.42 330.69
  L 324.54 330.69
  A 17.61 17.61 0.0 0 0 306.93 348.30
  L 306.93 548.28
  A 17.61 17.61 0.0 0 0 324.54 565.89
  L 325.42 565.89
  A 17.61 17.61 0.0 0 0 343.03 548.28
  L 343.03 348.30"
/>
<path stroke="#f69505" vector-effect="non-scaling-stroke" d="
  M 400.90 548.46
  C 400.59 553.49 404.06 559.11 407.81 562.21
  C 416.97 569.75 431.76 565.47 436.33 554.71
  Q 437.18 552.73 437.55 546.28
  C 441.42 479.64 445.16 421.14 449.00 355.07
  Q 449.43 347.61 448.32 344.09
  Q 445.53 335.23 437.15 331.91
  C 427.99 328.27 418.63 331.60 413.09 339.68
  Q 410.60 343.33 410.55 348.51
  Q 410.53 350.36 410.11 359.75
  Q 409.44 374.98 405.06 461.18
  C 403.54 491.01 402.53 522.32 400.90 548.46"
/>
</g>
<path fill="#ffffff" d="
  M 437.86 122.03
  L 396.53 121.94
  Q 394.95 106.37 395.04 90.31
  Q 395.08 84.00 394.15 81.41
  C 390.76 71.96 382.35 64.82 372.28 64.33
  Q 365.43 64.00 347.83 64.29
  Q 325.23 64.66 280.76 64.19
  C 266.39 64.03 255.49 74.72 255.93 89.25
  Q 256.43 105.93 254.91 121.98
  L 213.89 121.96
  Q 212.12 114.76 212.23 107.15
  C 212.40 95.48 212.07 84.00 212.57 76.73
  C 214.39 50.44 233.08 28.43 258.78 22.94
  Q 264.51 21.71 285.87 21.69
  Q 344.02 21.64 380.71 21.73
  C 392.31 21.76 403.02 25.81 412.85 32.38
  C 428.28 42.69 437.20 60.41 437.77 78.71
  Q 438.29 95.21 437.86 122.03
  Z"
/>
<path fill="#fec708" d="
  M 254.91 121.98
  Q 257.91 122.49 262.75 122.49
  Q 323.88 122.40 385.00 122.54
  Q 391.73 122.55 396.53 121.94
  L 437.86 122.03
  Q 443.57 122.56 452.25 122.50
  Q 455.36 122.48 530.96 122.45
  Q 547.33 122.44 549.99 123.10
  C 559.98 125.60 567.91 132.92 570.78 143.24
  Q 571.64 146.33 571.63 154.37
  Q 571.59 194.86 571.50 197.93
  C 571.15 210.01 561.41 220.24 550.17 222.83
  Q 547.25 223.50 531.81 223.51
  Q 435.42 223.60 144.00 223.56
  Q 114.84 223.56 111.33 223.51
  Q 100.72 223.37 97.31 222.06
  C 89.52 219.08 81.96 212.14 79.76 204.01
  Q 78.76 200.29 78.79 192.39
  Q 78.85 173.47 78.72 155.24
  Q 78.64 145.42 80.25 140.95
  Q 83.43 132.11 91.99 126.72
  C 98.75 122.47 103.75 122.57 112.94 122.53
  Q 152.31 122.37 201.75 122.59
  Q 208.06 122.62 213.89 121.96
  L 254.91 121.98
  Z"
/>
<path fill="#fec708" d="
  M 513.25 237.51
  C 519.24 237.58 526.87 241.22 532.00 244.96
  Q 534.92 247.10 538.29 251.96
  Q 545.95 263.02 544.19 278.93
  Q 540.59 311.45 523.00 483.79
  Q 514.54 566.61 511.45 599.48
  Q 509.93 615.60 497.43 627.95
  Q 483.92 641.31 464.50 641.35
  Q 338.66 641.61 191.76 641.39
  C 185.03 641.38 180.70 641.68 175.83 640.56
  Q 165.42 638.15 158.70 633.59
  Q 145.34 624.51 139.52 608.77
  Q 137.81 604.12 137.04 594.07
  Q 136.36 585.26 134.88 570.27
  Q 127.23 492.69 120.55 422.53
  C 115.96 374.44 110.79 325.66 106.56 283.46
  Q 105.34 271.26 106.16 267.03
  C 109.37 250.50 120.99 238.32 138.07 237.65
  Q 144.39 237.40 156.50 237.39
  Q 220.51 237.36 492.25 237.39
  Q 502.69 237.39 513.25 237.51
  Z
  M 231.26 565.83
  C 238.44 565.47 244.64 561.31 247.28 554.80
  Q 248.54 551.68 248.13 542.55
  Q 240.81 378.75 239.49 348.77
  C 239.01 337.66 229.88 330.04 219.24 330.58
  C 208.60 331.13 200.29 339.64 200.94 350.74
  Q 202.69 380.70 212.11 544.39
  Q 212.63 553.52 214.21 556.49
  C 217.50 562.70 224.09 566.20 231.26 565.83
  Z
  M 343.03 348.30
  A 17.61 17.61 0.0 0 0 325.42 330.69
  L 324.54 330.69
  A 17.61 17.61 0.0 0 0 306.93 348.30
  L 306.93 548.28
  A 17.61 17.61 0.0 0 0 324.54 565.89
  L 325.42 565.89
  A 17.61 17.61 0.0 0 0 343.03 548.28
  L 343.03 348.30
  Z
  M 400.90 548.46
  C 400.59 553.49 404.06 559.11 407.81 562.21
  C 416.97 569.75 431.76 565.47 436.33 554.71
  Q 437.18 552.73 437.55 546.28
  C 441.42 479.64 445.16 421.14 449.00 355.07
  Q 449.43 347.61 448.32 344.09
  Q 445.53 335.23 437.15 331.91
  C 427.99 328.27 418.63 331.60 413.09 339.68
  Q 410.60 343.33 410.55 348.51
  Q 410.53 350.36 410.11 359.75
  Q 409.44 374.98 405.06 461.18
  C 403.54 491.01 402.53 522.32 400.90 548.46
  Z"
/>
<path fill="#ee6202" d="
  M 219.24 330.58
  C 229.88 330.04 239.01 337.66 239.49 348.77
  Q 240.81 378.75 248.13 542.55
  Q 248.54 551.68 247.28 554.80
  C 244.64 561.31 238.44 565.47 231.26 565.83
  C 224.09 566.20 217.50 562.70 214.21 556.49
  Q 212.63 553.52 212.11 544.39
  Q 202.69 380.70 200.94 350.74
  C 200.29 339.64 208.60 331.13 219.24 330.58
  Z"
/>
<rect fill="#ee6202" x="306.93" y="330.69" width="36.10" height="235.20" rx="17.61"/>
<path fill="#ee6202" d="
  M 407.81 562.21
  C 404.06 559.11 400.59 553.49 400.90 548.46
  C 402.53 522.32 403.54 491.01 405.06 461.18
  Q 409.44 374.98 410.11 359.75
  Q 410.53 350.36 410.55 348.51
  Q 410.60 343.33 413.09 339.68
  C 418.63 331.60 427.99 328.27 437.15 331.91
  Q 445.53 335.23 448.32 344.09
  Q 449.43 347.61 449.00 355.07
  C 445.16 421.14 441.42 479.64 437.55 546.28
  Q 437.18 552.73 436.33 554.71
  C 431.76 565.47 416.97 569.75 407.81 562.21
  Z"
/>
</svg>
